!!!!SEGMENT: Any3004-Chi_non_fa_prove_amore--Newberry_Partbooks.krn
!!!id: Any3004
!!!AGN: Madrigal
!!!voices: 4
!!!COM: Anonymous
!!!SMS: Newberry Partbooks
!!!OTL: Chi non fa prove, amore (Newberry Partbooks)
**kern	**kern	**kern	**kern
*part4	*part3	*part2	*part1
*staff4	*staff3	*staff2	*staff1
*I"Bassus	*I"Tenor	*I"Altus	*I"Superius
*I'B	*I'T	*I'A	*I'S
*clefF4	*clefGv2	*clefGv2	*clefG2
*k[]	*k[]	*k[]	*k[]
*C:	*C:	*C:	*C:
*M2/1	*M2/1	*M2/1	*M2/1
*met(C)	*met(C)	*met(C)	*met(C)
0r	1A	0r	2r
.	.	.	2A
.	2G	.	2B
.	2F	.	2d
=1	=1	=1	=1
1r	2E	1r	2d
.	2E	.	2c#i
1A	2D	2r	1d
.	2D	2A	.
=2	=2	=2	=2
2G	0r	2B	1d
2F	.	2d	.
2E	.	2d	1r
2E	.	2c#i	.
=3	=3	=3	=3
2D	2r	2d	2r
2D	2A	2d	2f
2r	2d	2r	2f
2D	2d	2A	2f
=4	=4	=4	=4
2D	1.f	2d	1.a
2D	.	2d	.
2F	.	2c	.
2C	2e	2c	2g
=5	=5	=5	=5
1D	1d	1A	1f
2AA	2c	2A	2e
2FF	2c	2A	2f
=6	=6	=6	=6
2.GG	2B	2G	2d
.	1A	1E	2c
4AA	.	.	.
1BB-X	.	.	1d
.	2G	2D	.
=7	=7	=7	=7
1AA	1A	1E	1c
2r	2r	2r	2r
2AA	2c	2A	2e
=8	=8	=8	=8
2FF	2c	2A	2f
2FF	2c	2A	2f
2GG	2B	2G	2d
2AA	[2A	[2E	2c
=9	=9	=9	=9
1BB-X	2A]	2E]	1d
.	2G	2D	.
1AA	1A	1E	1c
=10	=10	=10	=10
2r	2r	2r	2r
2FF	2f	2c	2a
2C	2e	2c	2g
2D	2d	2A	2f
=11	=11	=11	=11
2AA	2c	2A	2e
2GG	2B	2d	2g
2.AA	2A	2c	2f
.	2A	2c	[2e
4BB	.	.	.
=12	=12	=12	=12
2C	2G	2c	4e]
.	.	.	4d
2D	2F	2B	2.d
1AA	1E	1A	.
.	.	.	4c#i
.	.	.	4c#i
.	.	.	8BL
.	.	.	8c#iJ
=13	=13	=13	=13
0D;	0D;	0A;	1d
.	.	.	1d;
=14	=14	=14	=14
1AA	0r	2r	0r
.	.	2A	.
2A	.	2c	.
2G	.	2B	.
=15	=15	=15	=15
2A	2r	2c	2r
2F	2A	2d	2a
2E	2c	2e	2a
2E	2B	2e	2g
=16	=16	=16	=16
2AA	2c	2e	2a
2D	2d	2A	2f
1AA	2e	[1A	2e
.	2c	.	2e
=17	=17	=17	=17
1D	4d	1A]	2.f
.	4A	.	.
.	1d	.	.
.	.	.	4d
1r	.	1A	1e
.	2c#i	.	.
=18	=18	=18	=18
1D	2d	2r	2d
.	2d	2A	2f
2D	2d	2A	2f
2D	2d	2A	2f
=19	=19	=19	=19
2E	2c	2e	2g
2E	2B	2e	2g
1AA	4A	1c	2a
.	4B	.	.
.	4c	.	4A
.	4d	.	4B
=20	=20	=20	=20
1A	2.e	1c	4c
.	.	.	4d
.	.	.	4e
.	8dL	.	4f
.	8cJ	.	.
2G	2B	1d	2g
2F	2A	.	[2a
=21	=21	=21	=21
1E	1B	1e	2a]
.	.	.	2g#i
1AA	1A	2c	2a
.	.	2c	2a
=22	=22	=22	=22
1D	2r	1d	2r
.	2A	.	2f
2GG	2.G	2B	2e
2GG	.	2B	2d
.	4F	.	.
=23	=23	=23	=23
2AA	2E	2A	2d
2AA	2E	2A	2c#i
2D	2D	2A	2d
2D	2D	2A	2d
=24	=24	=24	=24
1D	1A	1d	2r
.	.	.	2f
2GG	2.G	2B	2e
2GG	.	2B	2d
.	4F	.	.
=25	=25	=25	=25
2AA	2E	2A	2d
2AA	2E	2A	2c#i
2D	2D	2A	2d
2D	2D	2A	2d
=26	=26	=26	=26
2r	2r	2r	2r
2C	2G	2c	2e
2C	2G	2c	2e
2C	2G	2c	2e
=27	=27	=27	=27
1F	1A	1c	1f
1C	1G	1c	1e
=28	=28	=28	=28
1D	1d	1f	1a
2E	2B	2e	2g
2F	2A	2c	2a
=29	=29	=29	=29
2D	2d	2f	2a
2E	2B	2e	2g#i
2AA	2A	2c	2a
2AA	2A	2c	2a
=30	=30	=30	=30
2r	2r	2r	2r
2D	2d	2A	2f
2D	2d	2A	2f
2D	2d	2A	2f
=31	=31	=31	=31
2C	2e	2c	2g
2C	2e	2c	2g
1D	1d	1A	1f
=32	=32	=32	=32
1AA	1c#X	1A	1e
[1FF	[1f	[1c	[1a
=33	=33	=33	=33
1FF]	1f]	1c]	1a]
2C	2e	2c	2g
2C	2e	2c	2g
=34	=34	=34	=34
1D	1d	1A	1f
1AA	1c	1A	1e
=35	=35	=35	=35
2r	2r	2r	2r
2D	2f	2d	2a
2F	2f	2c	2a
2F	2f	2c	2a
=36	=36	=36	=36
2C	2e	2c	2g
2C	2e	2c	2g
2D	2d	2A	2f
2AA	2f	2c	2a
=37	=37	=37	=37
2C	2e	2c	2g
2D	1d	2A	2f
1AA	.	1A	1e
.	2c#i	.	.
=38	=38	=38	=38
1D	1d	1A	1d
2r	2r	2r	2r
2D	2A	2d	2f
=39	=39	=39	=39
2F	2A	2c	2f
2F	2A	2c	2f
2C	2G	2c	2e
2C	2G	2c	2e
=40	=40	=40	=40
2D	2F	2A	2d
2AA	2A	2c	2f
2C	2G	2c	2e
2D	2F	2A	[2d
=41	=41	=41	=41
1AA	1E	1A	4d]
.	.	.	4c#i
.	.	.	4c#i
.	.	.	8BL
.	.	.	8c#iJ
2.D	2D	2F	[1dl
.	2F	2A	.
4D	.	.	.
=42	=42	=42	=42
2D	2F	2A	0d_
2D	2F	2A	.
2GG	2G	2B	.
2D	2F	2A	.
=43	=43	=43	=43
1GG	1B-i	1G	0d_
[1Dl	[1Al	[1F#Xl	.
=44	=44	=44	=44
00D]	00A]	00F#]	00d]
==	==	==	==
*-	*-	*-	*-
!!!system-decoration: [*]
!!!RDF**kern: i = editorial accidental
!!!RDF**kern: l = terminal long
!!!ENC: Benjamin Ory
!!!END: 2024/4/29
!!!EED: Benjamin Ory
!!!EEV: 2024/04/29
!!!YEC: Copyright 2024 Benjamin Ory, All Rights Reserved
!!!ONB: Translated from MusicXML on 2024/04/29
